build/images/img/buy.svg

<svg xmlns="http://www.w3.org/2000/svg" width="100" height="100"><path fill-rule="evenodd" fill="#FFF" d="M93.636 74.341a2.07 2.07 0 01-.599.672l-4.748 4.752 11.019 11.027a2.087 2.087 0 010 2.95l-5.64 5.644a2.086 2.086 0 01-1.474.612 2.085 2.085 0 01-1.473-.612L79.703 88.359l-4.992 4.997a2.094 2.094 0 01-.719.467 50.464 50.464 0 01-4.104 2.002h.899a2.085 2.085 0 010 4.171l-20.939-.001-.026.001h-.011l-.025-.001H29.117a2.085 2.085 0 010-4.17h.772a49.56 49.56 0 01-4.939-2.496C13.429 86.673 5.175 75.877 1.708 62.928c-3.466-12.947-1.712-26.429 4.94-37.959C13.299 13.439 24.087 5.178 37.025 1.71 49.962-1.76 63.432-.004 74.953 6.652c11.405 6.59 19.625 17.263 23.148 30.054 3.518 12.776 1.933 26.142-4.465 37.635zm-19.32 13.511l3.914-3.917a2.084 2.084 0 012.946 0l11.018 11.028 2.694-2.696L83.87 81.239a2.083 2.083 0 010-2.949l3.913-3.916-18.397-4.933 4.93 18.411zM72.87 10.264c-10.558-6.1-22.905-7.707-34.767-4.526-11.862 3.18-21.751 10.751-27.846 21.316C4.161 37.62 2.555 49.977 5.733 61.849c3.179 11.871 10.743 21.769 21.3 27.869 13.332 7.704 29.965 8.08 43.757 1.079l-6.363-23.765a2.088 2.088 0 01.54-2.015 2.079 2.079 0 012.012-.538l23.789 6.378c10.99-21.529 3.18-48.414-17.898-60.593zm15.858 31.488a2.086 2.086 0 01-2.552-1.475c-3.456-12.911-13.618-23.08-26.518-26.54a2.086 2.086 0 011.078-4.028c14.334 3.844 25.625 15.142 29.465 29.487a2.088 2.088 0 01-1.473 2.556zM56.704 57.849c-1.167 1.92-3.64 2.88-7.419 2.88-3.84 0-6.234-1.029-7.184-3.089-.435-.951-.653-2.832-.653-5.644V40.143c0-.555.267-.832.802-.832h2.612c.455 0 .682.277.682.832v12.744c0 1.564.208 2.634.623 3.208.554.792 1.673 1.188 3.355 1.188 1.82 0 2.988-.377 3.502-1.129.435-.613.653-1.682.653-3.207V40.143c0-.555.267-.832.801-.832h2.404c.475 0 .713.278.713.832v11.793c0 1.584-.059 2.812-.178 3.684-.119.871-.356 1.615-.713 2.229zM52.916 12.57c-.053 0-.105-.003-.159-.007a39.883 39.883 0 00-1.561-.084 2.085 2.085 0 01-2.01-2.157 2.08 2.08 0 012.154-2.011c.587.019 1.169.052 1.729.093a2.085 2.085 0 01-.153 4.166zM41.719 88.799a2.086 2.086 0 01-2.552 1.474C24.833 86.428 13.543 75.129 9.702 60.785a2.084 2.084 0 114.025-1.08c3.457 12.91 13.618 23.08 26.519 26.539a2.087 2.087 0 011.473 2.555zm-7.013-37.857c.624.781.935 1.876.935 3.282 0 2.812-.999 4.615-2.997 5.406-1.149.456-3.167.684-6.056.684h-3.295c-1.068 0-1.855-.248-2.359-.743-.505-.495-.757-1.297-.757-2.406V42.61c0-2.18 1.039-3.268 3.117-3.268h3.472c1.128 0 2.207.06 3.236.178 1.702.177 2.958.678 3.769 1.5.812.821 1.217 1.996 1.217 3.521 0 1.285-.247 2.316-.742 3.089-.494.771-1.276 1.337-2.345 1.693 1.247.297 2.182.836 2.805 1.619zm-4.274-7.338c-.287-.347-.708-.608-1.262-.788-.435-.118-1.088-.178-1.959-.178h-2.047c-.594 0-.891.358-.891 1.069v4.16h2.731c1.266 0 2.107-.09 2.522-.268.891-.376 1.336-1.149 1.336-2.317 0-.773-.144-1.332-.43-1.678zm-.49 7.828c-.514-.198-1.435-.298-2.761-.298h-2.908v4.634c0 .397.084.685.252.863.168.177.46.267.876.267h2.196c1.128 0 1.94-.1 2.434-.297.95-.376 1.425-1.298 1.425-2.764 0-1.188-.505-1.989-1.514-2.405zm17.204 35.986c.508.038 1.033.066 1.561.084a2.085 2.085 0 01-.07 4.17l-.072-.001a43.354 43.354 0 01-1.731-.094 2.085 2.085 0 01.312-4.159zm15.04-48.048c.218-.079 1.326-.119 3.324-.119.474 0 .87.278 1.187.832 1.9 3.15 3.305 5.605 4.215 7.368.752-1.446 2.167-3.882 4.244-7.308.337-.595.743-.892 1.217-.892 1.702 0 2.701.05 2.998.15.238.098.356.267.357.504 0 .219-.119.535-.356.951L72.841 51.49v7.962c0 .277-.079.495-.237.653a.8.8 0 01-.594.238h-2.493c-.535 0-.802-.297-.802-.891h.001V51.61l-6.53-10.695c-.258-.436-.386-.763-.386-.981 0-.256.128-.446.386-.564z"/></svg>

<svg 
 xmlns="http://www.w3.org/2000/svg"
 xmlns:xlink="http://www.w3.org/1999/xlink"
 width="100px" height="100px">
<path fill-rule="evenodd"  fill="rgb(255, 255, 255)"
 d="M93.636,74.341 C93.483,74.616 93.276,74.840 93.037,75.013 L88.289,79.765 L99.308,90.792 C100.122,91.607 100.122,92.928 99.308,93.742 L93.668,99.386 C93.277,99.777 92.747,99.998 92.194,99.998 C91.642,99.998 91.112,99.777 90.721,99.386 L79.703,88.359 L74.711,93.356 C74.503,93.564 74.257,93.719 73.992,93.823 C72.653,94.553 71.283,95.221 69.888,95.825 L70.787,95.825 C71.937,95.825 72.870,96.760 72.870,97.911 C72.870,99.063 71.937,99.996 70.787,99.996 L49.848,99.995 C49.839,99.995 49.831,99.996 49.822,99.996 C49.819,99.996 49.815,99.996 49.811,99.996 C49.803,99.996 49.795,99.995 49.786,99.995 L29.117,99.995 C27.967,99.995 27.034,99.063 27.034,97.910 C27.034,96.760 27.967,95.825 29.117,95.825 L29.889,95.825 C28.202,95.087 26.552,94.255 24.950,93.329 C13.429,86.673 5.175,75.877 1.708,62.928 C-1.758,49.981 -0.004,36.499 6.648,24.969 C13.299,13.439 24.087,5.178 37.025,1.710 C49.962,-1.760 63.432,-0.004 74.953,6.652 C86.358,13.242 94.578,23.915 98.101,36.706 C101.619,49.482 100.034,62.848 93.636,74.341 ZM74.316,87.852 L78.230,83.935 C78.620,83.545 79.150,83.325 79.703,83.325 C80.255,83.325 80.785,83.545 81.176,83.935 L92.194,94.963 L94.888,92.267 L83.870,81.239 C83.479,80.849 83.259,80.318 83.259,79.765 C83.259,79.213 83.479,78.682 83.870,78.290 L87.783,74.374 L69.386,69.441 L74.316,87.852 ZM72.870,10.264 C62.312,4.164 49.965,2.557 38.103,5.738 C26.241,8.918 16.352,16.489 10.257,27.054 C4.161,37.620 2.555,49.977 5.733,61.849 C8.912,73.720 16.476,83.618 27.033,89.718 C40.365,97.422 56.998,97.798 70.790,90.797 L64.427,67.032 C64.234,66.314 64.440,65.545 64.967,65.017 C65.493,64.491 66.259,64.285 66.979,64.479 L90.768,70.857 C101.758,49.328 93.948,22.443 72.870,10.264 ZM88.728,41.752 C88.548,41.799 88.366,41.823 88.188,41.823 C87.268,41.823 86.426,41.209 86.176,40.277 C82.720,27.366 72.558,17.197 59.658,13.737 C58.547,13.439 57.887,12.295 58.185,11.183 C58.482,10.071 59.625,9.411 60.736,9.709 C75.070,13.553 86.361,24.851 90.201,39.196 C90.499,40.309 89.839,41.453 88.728,41.752 ZM56.704,57.849 C55.537,59.769 53.064,60.729 49.285,60.729 C45.445,60.729 43.051,59.700 42.101,57.640 C41.666,56.689 41.448,54.808 41.448,51.996 L41.448,40.143 C41.448,39.588 41.715,39.311 42.250,39.311 L44.862,39.311 C45.317,39.311 45.544,39.588 45.544,40.143 L45.544,52.887 C45.544,54.451 45.752,55.521 46.167,56.095 C46.721,56.887 47.840,57.283 49.522,57.283 C51.342,57.283 52.510,56.906 53.024,56.154 C53.459,55.541 53.677,54.472 53.677,52.947 L53.677,40.143 C53.677,39.588 53.944,39.311 54.478,39.311 L56.882,39.311 C57.357,39.311 57.595,39.589 57.595,40.143 L57.595,51.936 C57.595,53.520 57.536,54.748 57.417,55.620 C57.298,56.491 57.061,57.235 56.704,57.849 ZM52.916,12.570 C52.863,12.570 52.811,12.567 52.757,12.563 C52.253,12.526 51.727,12.497 51.196,12.479 C50.046,12.438 49.145,11.473 49.186,10.322 C49.225,9.172 50.185,8.270 51.340,8.311 C51.927,8.330 52.509,8.363 53.069,8.404 C54.217,8.490 55.077,9.491 54.991,10.640 C54.909,11.735 53.995,12.570 52.916,12.570 ZM41.719,88.799 C41.470,89.729 40.627,90.344 39.708,90.344 C39.529,90.344 39.348,90.322 39.167,90.273 C24.833,86.428 13.543,75.129 9.702,60.785 C9.404,59.673 10.064,58.529 11.176,58.230 C12.287,57.932 13.429,58.593 13.727,59.705 C17.184,72.615 27.345,82.785 40.246,86.244 C41.357,86.543 42.017,87.686 41.719,88.799 ZM34.706,50.942 C35.330,51.723 35.641,52.818 35.641,54.224 C35.641,57.036 34.642,58.839 32.644,59.630 C31.495,60.086 29.477,60.314 26.588,60.314 L23.293,60.314 C22.225,60.314 21.438,60.066 20.934,59.571 C20.429,59.076 20.177,58.274 20.177,57.165 L20.177,42.610 C20.177,40.430 21.216,39.342 23.294,39.342 L26.766,39.342 C27.894,39.342 28.973,39.402 30.002,39.520 C31.704,39.697 32.960,40.198 33.771,41.020 C34.583,41.841 34.988,43.016 34.988,44.541 C34.988,45.826 34.741,46.857 34.246,47.630 C33.752,48.401 32.970,48.967 31.901,49.323 C33.148,49.620 34.083,50.159 34.706,50.942 ZM30.432,43.604 C30.145,43.257 29.724,42.996 29.170,42.816 C28.735,42.698 28.082,42.638 27.211,42.638 L25.164,42.638 C24.570,42.638 24.273,42.996 24.273,43.707 L24.273,43.707 L24.273,47.867 L27.004,47.867 C28.270,47.867 29.111,47.777 29.526,47.599 C30.417,47.223 30.862,46.450 30.862,45.282 C30.862,44.509 30.718,43.950 30.432,43.604 ZM29.942,51.432 C29.428,51.234 28.507,51.134 27.181,51.134 L24.273,51.134 L24.273,55.768 C24.273,56.165 24.357,56.453 24.525,56.631 C24.693,56.808 24.985,56.898 25.401,56.898 L27.597,56.898 C28.725,56.898 29.537,56.798 30.031,56.601 C30.981,56.225 31.456,55.303 31.456,53.837 C31.456,52.649 30.951,51.848 29.942,51.432 ZM47.146,87.418 C47.654,87.456 48.179,87.484 48.707,87.502 C49.857,87.542 50.757,88.507 50.718,89.657 C50.679,90.784 49.755,91.672 48.637,91.672 C48.613,91.672 48.589,91.671 48.565,91.671 C47.980,91.650 47.398,91.620 46.834,91.577 C45.687,91.490 44.827,90.490 44.913,89.342 C44.999,88.194 45.998,87.331 47.146,87.418 ZM62.186,39.370 C62.404,39.291 63.512,39.251 65.510,39.251 C65.984,39.251 66.380,39.529 66.697,40.083 C68.597,43.233 70.002,45.688 70.912,47.451 C71.664,46.005 73.079,43.569 75.156,40.143 C75.493,39.548 75.899,39.251 76.373,39.251 C78.075,39.251 79.074,39.301 79.371,39.401 C79.609,39.499 79.727,39.668 79.728,39.905 C79.728,40.124 79.609,40.440 79.372,40.856 L72.841,51.490 L72.841,59.452 C72.841,59.729 72.762,59.947 72.604,60.105 C72.445,60.265 72.248,60.343 72.010,60.343 L69.517,60.343 C68.982,60.343 68.715,60.046 68.715,59.452 L68.716,59.452 L68.716,51.610 L62.186,40.915 C61.928,40.479 61.800,40.152 61.800,39.934 C61.800,39.678 61.928,39.488 62.186,39.370 Z"/>
</svg>
